X: 205
T:Goodbye Mick
M:4/4
L:1/4
K:D
D/2E/2|"D"FFF>D|FFF>D|FFGF|"A"FEzC/2D/2|
EEED|CEA>A|AGFE|"D"FD2:|


